X: 16877
T: Hats Off To Hatao
R: waltz
M: 3/4
K: Gmajor
c2 A2|G2 D2 G2|B2 d2 g2|b6-|b4 a2|
g2 d2 B2|g2 d2 e2|f6-|f2 c2 A2|
F2 D2 F2|A2 c2 d2|a6-|a4 g2|
f2 d2- de|f2 (3efe d2|B6-|B2 c2 A2|
G2 D2 G2|B2 d2 g2|b6-|b4 a2|
g2 d2 B2|g2 a2 g2|e6-|e4 f2|
g2 e2 c2|g4 f2|g2 d2 B2|g4 d2|
f2 (3efe d2|c2 (3BcB A2|G6-|G2||
b2 ^a2|b6-|b2 f2 a2|g6-|g2 d2 f2|
g2 (3fgf e2|d2 (3cdc B2|A6-|A2 a2 ^g2|
a6-|a2 e2 g2|f6-|f2 d2 e2|
f2 (3efe d2|c2 (3BcB A2|G6-|G2 b2 ^a2|
b6-|b2 f2 a2|g6-|g2 f2 e2|
g2 (3fgf e2|d2 (3cdc B2|A6-|A2 e2 f2|
g2 e2 c2|g2 e2 c2|g2 d2 B2|g2 d2 B2|
f2 (3efe d2|c2 (3BcB A2|G6-|G2||

